assets/logo-lucas-jouin.svg

<svg width="74" height="42" viewBox="0 0 74 42" fill="none" xmlns="http://www.w3.org/2000/svg">
<g clip-path="url(#clip0_149_791)">
<rect y="30" width="74" height="12" fill="#35CD3D"/>
<path d="M0.9 12V10.56H2.988V5.04H0.972V3.6H4.5V10.56H6.444V12H0.9ZM10.3957 12.168C10.0037 12.168 9.64766 12.084 9.32766 11.916C9.00766 11.74 8.75166 11.476 8.55966 11.124C8.37566 10.764 8.28366 10.312 8.28366 9.768V6.048H9.79566V9.456C9.79566 9.872 9.89566 10.2 10.0957 10.44C10.3037 10.68 10.6037 10.8 10.9957 10.8C11.4517 10.8 11.7837 10.656 11.9917 10.368C12.2077 10.072 12.3157 9.672 12.3157 9.168V6.048H13.8277V12H12.3157V11.136H12.0997C11.8357 11.824 11.2677 12.168 10.3957 12.168ZM18.4393 12.168C17.8553 12.168 17.3273 12.052 16.8553 11.82C16.3833 11.58 16.0073 11.236 15.7273 10.788C15.4553 10.332 15.3193 9.784 15.3193 9.144V9C15.3193 8.36 15.4593 7.808 15.7393 7.344C16.0193 6.872 16.3953 6.512 16.8673 6.264C17.3393 6.008 17.8633 5.88 18.4393 5.88C19.2713 5.88 19.9473 6.096 20.4673 6.528C20.9873 6.96 21.3113 7.528 21.4393 8.232L19.9513 8.616C19.9033 8.264 19.7513 7.96 19.4953 7.704C19.2393 7.448 18.8793 7.32 18.4153 7.32C17.9833 7.32 17.6113 7.472 17.2993 7.776C16.9873 8.08 16.8313 8.5 16.8313 9.036V9.108C16.8313 9.644 16.9873 10.048 17.2993 10.32C17.6113 10.592 17.9833 10.728 18.4153 10.728C18.8793 10.728 19.2313 10.612 19.4713 10.38C19.7193 10.148 19.8793 9.836 19.9513 9.444L21.4393 9.816C21.3113 10.52 20.9913 11.088 20.4793 11.52C19.9673 11.952 19.2873 12.168 18.4393 12.168ZM25.151 12.168C24.679 12.168 24.243 12.048 23.843 11.808C23.443 11.568 23.123 11.22 22.883 10.764C22.643 10.308 22.523 9.76 22.523 9.12V8.928C22.523 8.296 22.639 7.752 22.871 7.296C23.103 6.84 23.411 6.492 23.795 6.252C24.187 6.004 24.615 5.88 25.079 5.88C25.503 5.88 25.843 5.952 26.099 6.096C26.363 6.24 26.571 6.464 26.723 6.768H26.939V6.048H28.451V10.2C28.451 10.44 28.559 10.56 28.775 10.56H29.003V12H27.971C27.699 12 27.475 11.92 27.299 11.76C27.131 11.592 27.047 11.384 27.047 11.136H26.831C26.679 11.504 26.455 11.768 26.159 11.928C25.871 12.088 25.535 12.168 25.151 12.168ZM25.487 10.728C25.927 10.728 26.279 10.584 26.543 10.296C26.807 10 26.939 9.6 26.939 9.096V8.952C26.939 8.448 26.807 8.052 26.543 7.764C26.279 7.468 25.927 7.32 25.487 7.32C25.047 7.32 24.695 7.468 24.431 7.764C24.167 8.052 24.035 8.448 24.035 8.952V9.096C24.035 9.6 24.167 10 24.431 10.296C24.695 10.584 25.047 10.728 25.487 10.728ZM33.2066 12.168C32.5906 12.168 32.0906 12.068 31.7066 11.868C31.3306 11.668 31.0426 11.424 30.8426 11.136C30.6506 10.848 30.5266 10.568 30.4706 10.296L31.8626 9.84C31.9266 10.088 32.0626 10.312 32.2706 10.512C32.4786 10.704 32.7906 10.8 33.2066 10.8C33.5826 10.8 33.8386 10.744 33.9746 10.632C34.1186 10.512 34.1906 10.384 34.1906 10.248C34.1906 10.088 34.1066 9.948 33.9386 9.828C33.7706 9.708 33.4346 9.628 32.9306 9.588C32.2666 9.532 31.7346 9.356 31.3346 9.06C30.9346 8.764 30.7346 8.336 30.7346 7.776V7.704C30.7346 7.312 30.8426 6.98 31.0586 6.708C31.2746 6.436 31.5546 6.232 31.8986 6.096C32.2426 5.952 32.6066 5.88 32.9906 5.88C33.4946 5.88 33.9106 5.96 34.2386 6.12C34.5666 6.272 34.8226 6.464 35.0066 6.696C35.1986 6.928 35.3346 7.16 35.4146 7.392L34.0466 7.944C33.9746 7.728 33.8506 7.56 33.6746 7.44C33.4986 7.312 33.2706 7.248 32.9906 7.248C32.7426 7.248 32.5506 7.296 32.4146 7.392C32.2866 7.48 32.2226 7.592 32.2226 7.728C32.2226 7.92 32.3226 8.056 32.5226 8.136C32.7226 8.216 33.0866 8.288 33.6146 8.352C34.2226 8.416 34.7186 8.6 35.1026 8.904C35.4866 9.2 35.6786 9.616 35.6786 10.152V10.224C35.6786 10.808 35.4626 11.28 35.0306 11.64C34.5986 11.992 33.9906 12.168 33.2066 12.168ZM4.548 19.424C4.236 19.424 3.968 19.316 3.744 19.1C3.52 18.876 3.408 18.604 3.408 18.284C3.408 17.964 3.52 17.696 3.744 17.48C3.968 17.256 4.236 17.144 4.548 17.144C4.86 17.144 5.128 17.256 5.352 17.48C5.576 17.696 5.688 17.964 5.688 18.284C5.688 18.604 5.576 18.876 5.352 19.1C5.128 19.316 4.86 19.424 4.548 19.424ZM1.296 28.4V26.96H3.456C3.696 26.96 3.816 26.828 3.816 26.564V21.488H1.512V20.048H5.328V27.176C5.328 27.592 5.216 27.9 4.992 28.1C4.768 28.3 4.476 28.4 4.116 28.4H1.296ZM11.0197 26.168C10.4757 26.168 9.96766 26.048 9.49566 25.808C9.02366 25.568 8.64366 25.22 8.35566 24.764C8.06766 24.308 7.92366 23.752 7.92366 23.096V22.952C7.92366 22.304 8.06766 21.752 8.35566 21.296C8.64366 20.832 9.02366 20.48 9.49566 20.24C9.96766 20 10.4757 19.88 11.0197 19.88C11.5637 19.88 12.0717 20 12.5437 20.24C13.0157 20.48 13.3957 20.832 13.6837 21.296C13.9717 21.752 14.1157 22.304 14.1157 22.952V23.096C14.1157 23.752 13.9717 24.308 13.6837 24.764C13.3957 25.22 13.0157 25.568 12.5437 25.808C12.0717 26.048 11.5637 26.168 11.0197 26.168ZM11.0197 24.728C11.4597 24.728 11.8317 24.588 12.1357 24.308C12.4477 24.02 12.6037 23.632 12.6037 23.144V22.904C12.6037 22.408 12.4477 22.02 12.1357 21.74C11.8317 21.46 11.4597 21.32 11.0197 21.32C10.5797 21.32 10.2037 21.46 9.89166 21.74C9.58766 22.02 9.43566 22.408 9.43566 22.904V23.144C9.43566 23.632 9.58766 24.02 9.89166 24.308C10.2037 24.588 10.5797 24.728 11.0197 24.728ZM17.7433 26.168C17.3513 26.168 16.9953 26.084 16.6753 25.916C16.3553 25.74 16.0993 25.476 15.9073 25.124C15.7233 24.764 15.6313 24.312 15.6313 23.768V20.048H17.1433V23.456C17.1433 23.872 17.2433 24.2 17.4433 24.44C17.6513 24.68 17.9513 24.8 18.3433 24.8C18.7993 24.8 19.1313 24.656 19.3393 24.368C19.5553 24.072 19.6633 23.672 19.6633 23.168V20.048H21.1753V26H19.6633V25.136H19.4473C19.1833 25.824 18.6153 26.168 17.7433 26.168ZM25.847 19.424C25.535 19.424 25.267 19.316 25.043 19.1C24.819 18.876 24.707 18.604 24.707 18.284C24.707 17.964 24.819 17.696 25.043 17.48C25.267 17.256 25.535 17.144 25.847 17.144C26.159 17.144 26.427 17.256 26.651 17.48C26.875 17.696 26.987 17.964 26.987 18.284C26.987 18.604 26.875 18.876 26.651 19.1C26.427 19.316 26.159 19.424 25.847 19.424ZM23.087 26V24.56H25.103V21.488H23.231V20.048H26.615V24.56H28.343V26H23.087ZM30.3266 26V20.048H31.8386V20.936H32.0546C32.1906 20.6 32.4106 20.34 32.7146 20.156C33.0186 19.972 33.3746 19.88 33.7826 19.88C34.1666 19.88 34.5146 19.964 34.8266 20.132C35.1466 20.292 35.3986 20.548 35.5826 20.9C35.7746 21.244 35.8706 21.688 35.8706 22.232V26H34.3586V22.616C34.3586 22.192 34.2546 21.86 34.0466 21.62C33.8466 21.372 33.5546 21.248 33.1706 21.248C32.7306 21.248 32.3986 21.4 32.1746 21.704C31.9506 22 31.8386 22.4 31.8386 22.904V26H30.3266Z" fill="#F1F1F1"/>
<path d="M2.58 40V35.488H0.888V34.048H2.58V32.824C2.58 32.48 2.696 32.192 2.928 31.96C3.16 31.72 3.448 31.6 3.792 31.6H6.216V33.04H4.416C4.2 33.04 4.092 33.16 4.092 33.4V34.048H6.432V35.488H4.092V40H2.58ZM7.85166 40V38.56H9.07566V35.488H7.99566V34.048H10.5157V34.912H10.7317C10.8437 34.584 11.0357 34.332 11.3077 34.156C11.5797 33.972 11.8997 33.88 12.2677 33.88C12.8597 33.88 13.3357 34.068 13.6957 34.444C14.0557 34.812 14.2357 35.376 14.2357 36.136V36.4L12.6757 36.544V36.376C12.6757 36.048 12.5917 35.788 12.4237 35.596C12.2557 35.396 12.0037 35.296 11.6677 35.296C11.3317 35.296 11.0677 35.412 10.8757 35.644C10.6837 35.876 10.5877 36.208 10.5877 36.64V38.56H11.9557V40H7.85166ZM18.4273 40.168C17.8353 40.168 17.3113 40.044 16.8553 39.796C16.3993 39.54 16.0433 39.176 15.7873 38.704C15.5313 38.232 15.4033 37.664 15.4033 37V36.928C15.4033 36.32 15.5393 35.788 15.8113 35.332C16.0833 34.876 16.4433 34.52 16.8913 34.264C17.3473 34.008 17.8513 33.88 18.4033 33.88C18.9153 33.88 19.3553 33.968 19.7233 34.144C20.0913 34.32 20.3913 34.548 20.6233 34.828C20.8633 35.108 21.0393 35.416 21.1513 35.752C21.2713 36.08 21.3313 36.4 21.3313 36.712V37.516H16.9633C16.9793 37.868 17.1273 38.16 17.4073 38.392C17.6873 38.616 18.0193 38.728 18.4033 38.728C18.7793 38.728 19.0673 38.66 19.2673 38.524C19.4753 38.388 19.6193 38.232 19.6993 38.056L20.9953 38.776C20.9073 38.976 20.7593 39.184 20.5513 39.4C20.3513 39.616 20.0793 39.8 19.7353 39.952C19.3913 40.096 18.9553 40.168 18.4273 40.168ZM16.9873 36.22H19.7953C19.7473 35.94 19.5953 35.708 19.3393 35.524C19.0913 35.34 18.7753 35.248 18.3913 35.248C18.0153 35.248 17.7033 35.348 17.4553 35.548C17.2153 35.74 17.0593 35.964 16.9873 36.22ZM25.775 40.168C25.183 40.168 24.659 40.044 24.203 39.796C23.747 39.54 23.391 39.176 23.135 38.704C22.879 38.232 22.751 37.664 22.751 37V36.928C22.751 36.32 22.887 35.788 23.159 35.332C23.431 34.876 23.791 34.52 24.239 34.264C24.695 34.008 25.199 33.88 25.751 33.88C26.263 33.88 26.703 33.968 27.071 34.144C27.439 34.32 27.739 34.548 27.971 34.828C28.211 35.108 28.387 35.416 28.499 35.752C28.619 36.08 28.679 36.4 28.679 36.712V37.516H24.311C24.327 37.868 24.475 38.16 24.755 38.392C25.035 38.616 25.367 38.728 25.751 38.728C26.127 38.728 26.415 38.66 26.615 38.524C26.823 38.388 26.967 38.232 27.047 38.056L28.343 38.776C28.255 38.976 28.107 39.184 27.899 39.4C27.699 39.616 27.427 39.8 27.083 39.952C26.739 40.096 26.303 40.168 25.775 40.168ZM24.335 36.22H27.143C27.095 35.94 26.943 35.708 26.687 35.524C26.439 35.34 26.123 35.248 25.739 35.248C25.363 35.248 25.051 35.348 24.803 35.548C24.563 35.74 24.407 35.964 24.335 36.22ZM30.2906 40V38.56H32.3786V33.04H30.3626V31.6H33.8906V38.56H35.8346V40H30.2906ZM39.8463 40.168C39.3743 40.168 38.9383 40.048 38.5383 39.808C38.1383 39.568 37.8183 39.22 37.5783 38.764C37.3383 38.308 37.2183 37.76 37.2183 37.12V36.928C37.2183 36.296 37.3343 35.752 37.5663 35.296C37.7983 34.84 38.1063 34.492 38.4903 34.252C38.8823 34.004 39.3103 33.88 39.7743 33.88C40.1983 33.88 40.5383 33.952 40.7943 34.096C41.0583 34.24 41.2663 34.464 41.4183 34.768H41.6343V34.048H43.1463V38.2C43.1463 38.44 43.2543 38.56 43.4703 38.56H43.6983V40H42.6663C42.3943 40 42.1703 39.92 41.9943 39.76C41.8263 39.592 41.7423 39.384 41.7423 39.136H41.5263C41.3743 39.504 41.1503 39.768 40.8543 39.928C40.5663 40.088 40.2303 40.168 39.8463 40.168ZM40.1823 38.728C40.6223 38.728 40.9743 38.584 41.2383 38.296C41.5023 38 41.6343 37.6 41.6343 37.096V36.952C41.6343 36.448 41.5023 36.052 41.2383 35.764C40.9743 35.468 40.6223 35.32 40.1823 35.32C39.7423 35.32 39.3903 35.468 39.1263 35.764C38.8623 36.052 38.7303 36.448 38.7303 36.952V37.096C38.7303 37.6 38.8623 38 39.1263 38.296C39.3903 38.584 39.7423 38.728 40.1823 38.728ZM45.0219 40V34.048H46.5339V34.936H46.7499C46.8859 34.6 47.1059 34.34 47.4099 34.156C47.7139 33.972 48.0699 33.88 48.4779 33.88C48.8619 33.88 49.2099 33.964 49.5219 34.132C49.8419 34.292 50.0939 34.548 50.2779 34.9C50.4699 35.244 50.5659 35.688 50.5659 36.232V40H49.0539V36.616C49.0539 36.192 48.9499 35.86 48.7419 35.62C48.5419 35.372 48.2499 35.248 47.8659 35.248C47.4259 35.248 47.0939 35.4 46.8699 35.704C46.6459 36 46.5339 36.4 46.5339 36.904V40H45.0219ZM55.1776 40.168C54.5936 40.168 54.0656 40.052 53.5936 39.82C53.1216 39.58 52.7456 39.236 52.4656 38.788C52.1936 38.332 52.0576 37.784 52.0576 37.144V37C52.0576 36.36 52.1976 35.808 52.4776 35.344C52.7576 34.872 53.1336 34.512 53.6056 34.264C54.0776 34.008 54.6016 33.88 55.1776 33.88C56.0096 33.88 56.6856 34.096 57.2056 34.528C57.7256 34.96 58.0496 35.528 58.1776 36.232L56.6896 36.616C56.6416 36.264 56.4896 35.96 56.2336 35.704C55.9776 35.448 55.6176 35.32 55.1536 35.32C54.7216 35.32 54.3496 35.472 54.0376 35.776C53.7256 36.08 53.5696 36.5 53.5696 37.036V37.108C53.5696 37.644 53.7256 38.048 54.0376 38.32C54.3496 38.592 54.7216 38.728 55.1536 38.728C55.6176 38.728 55.9696 38.612 56.2096 38.38C56.4576 38.148 56.6176 37.836 56.6896 37.444L58.1776 37.816C58.0496 38.52 57.7296 39.088 57.2176 39.52C56.7056 39.952 56.0256 40.168 55.1776 40.168ZM62.5133 40.168C61.9213 40.168 61.3973 40.044 60.9413 39.796C60.4853 39.54 60.1293 39.176 59.8733 38.704C59.6173 38.232 59.4893 37.664 59.4893 37V36.928C59.4893 36.32 59.6253 35.788 59.8973 35.332C60.1693 34.876 60.5293 34.52 60.9773 34.264C61.4333 34.008 61.9373 33.88 62.4893 33.88C63.0013 33.88 63.4413 33.968 63.8093 34.144C64.1773 34.32 64.4773 34.548 64.7093 34.828C64.9493 35.108 65.1253 35.416 65.2373 35.752C65.3573 36.08 65.4173 36.4 65.4173 36.712V37.516H61.0493C61.0653 37.868 61.2133 38.16 61.4933 38.392C61.7733 38.616 62.1053 38.728 62.4893 38.728C62.8653 38.728 63.1533 38.66 63.3533 38.524C63.5613 38.388 63.7053 38.232 63.7853 38.056L65.0813 38.776C64.9933 38.976 64.8453 39.184 64.6373 39.4C64.4373 39.616 64.1653 39.8 63.8213 39.952C63.4773 40.096 63.0413 40.168 62.5133 40.168ZM61.0733 36.22H63.8813C63.8333 35.94 63.6813 35.708 63.4253 35.524C63.1773 35.34 62.8613 35.248 62.4773 35.248C62.1013 35.248 61.7893 35.348 61.5413 35.548C61.3013 35.74 61.1453 35.964 61.0733 36.22Z" fill="#292929"/>
</g>
<defs>
<clipPath id="clip0_149_791">
<rect width="74" height="42" fill="white"/>
</clipPath>
</defs>
</svg>

<svg xmlns="http://www.w3.org/2000/svg" width="74" height="42" fill="none" viewBox="0 0 74 42"><g clip-path="url(#a)"><path fill="#35cd3d" d="M0 30h74v12H0z"/><path fill="#f1f1f1" d="M.9 12v-1.44h2.088V5.04H.972V3.6H4.5v6.96h1.944V12zm9.496.168q-.588 0-1.068-.252a1.93 1.93 0 0 1-.768-.792q-.276-.54-.276-1.356v-3.72h1.512v3.408q0 .624.3.984.312.36.9.36.684 0 .996-.432.324-.444.324-1.2v-3.12h1.512V12h-1.512v-.864H12.1q-.396 1.032-1.704 1.032m8.043 0a3.54 3.54 0 0 1-1.584-.348 2.8 2.8 0 0 1-1.128-1.032q-.408-.684-.408-1.644V9q0-.96.42-1.656.42-.708 1.128-1.08a3.24 3.24 0 0 1 1.572-.384q1.248 0 2.028.648t.972 1.704l-1.488.384a1.56 1.56 0 0 0-.456-.912q-.384-.384-1.08-.384-.648 0-1.116.456t-.468 1.26v.072q0 .804.468 1.212t1.116.408q.696 0 1.056-.348.372-.348.48-.936l1.488.372q-.192 1.056-.96 1.704t-2.04.648m6.712 0q-.708 0-1.308-.36t-.96-1.044-.36-1.644v-.192q0-.948.348-1.632t.924-1.044q.588-.372 1.284-.372.636 0 1.02.216.396.216.624.672h.216v-.72h1.512V10.2q0 .36.324.36h.228V12h-1.032a.96.96 0 0 1-.672-.24.85.85 0 0 1-.252-.624h-.216q-.228.552-.672.792-.432.24-1.008.24m.336-1.44q.66 0 1.056-.432.396-.444.396-1.2v-.144q0-.756-.396-1.188-.396-.444-1.056-.444t-1.056.444q-.396.432-.396 1.188v.144q0 .756.396 1.2.396.432 1.056.432m7.72 1.44q-.924 0-1.5-.3-.564-.3-.864-.732a2.4 2.4 0 0 1-.372-.84l1.392-.456q.096.372.408.672.312.288.936.288.564 0 .768-.168.216-.18.216-.384 0-.24-.252-.42t-1.008-.24q-.996-.084-1.596-.528t-.6-1.284v-.072q0-.588.324-.996t.84-.612a2.8 2.8 0 0 1 1.092-.216q.756 0 1.248.24.492.228.768.576.288.348.408.696l-1.368.552a.96.96 0 0 0-.372-.504q-.264-.192-.684-.192-.372 0-.576.144-.192.132-.192.336 0 .288.3.408t1.092.216q.912.096 1.488.552.576.444.576 1.248v.072q0 .876-.648 1.416-.648.528-1.824.528M4.548 19.424q-.468 0-.804-.324a1.1 1.1 0 0 1-.336-.816q0-.48.336-.804.336-.336.804-.336t.804.336q.336.324.336.804t-.336.816a1.12 1.12 0 0 1-.804.324M1.296 28.4v-1.44h2.16q.36 0 .36-.396v-5.076H1.512v-1.44h3.816v7.128q0 .624-.336.924t-.876.3zm9.724-2.232q-.816 0-1.524-.36a2.86 2.86 0 0 1-1.14-1.044q-.432-.684-.432-1.668v-.144q0-.972.432-1.656a2.84 2.84 0 0 1 1.14-1.056q.708-.36 1.524-.36t1.524.36 1.14 1.056q.432.684.432 1.656v.144q0 .984-.432 1.668a2.86 2.86 0 0 1-1.14 1.044q-.708.36-1.524.36m0-1.44q.66 0 1.116-.42.468-.432.468-1.164v-.24q0-.744-.468-1.164a1.59 1.59 0 0 0-1.116-.42q-.66 0-1.128.42-.456.42-.456 1.164v.24q0 .732.456 1.164.468.42 1.128.42m6.723 1.44q-.588 0-1.068-.252a1.93 1.93 0 0 1-.768-.792q-.276-.54-.276-1.356v-3.72h1.512v3.408q0 .624.3.984.312.36.9.36.684 0 .996-.432.324-.444.324-1.2v-3.12h1.512V26h-1.512v-.864h-.216q-.396 1.032-1.704 1.032m8.104-6.744q-.468 0-.804-.324a1.1 1.1 0 0 1-.336-.816q0-.48.336-.804.336-.336.804-.336t.804.336q.336.324.336.804t-.336.816a1.12 1.12 0 0 1-.804.324M23.087 26v-1.44h2.016v-3.072h-1.872v-1.44h3.384v4.512h1.728V26zm7.24 0v-5.952h1.512v.888h.216a1.58 1.58 0 0 1 .66-.78q.456-.276 1.068-.276.576 0 1.044.252.48.24.756.768.288.516.288 1.332V26h-1.512v-3.384q0-.636-.312-.996-.3-.372-.876-.372-.66 0-.996.456-.336.444-.336 1.2V26z"/><path fill="#292929" d="M2.58 40v-4.512H.888v-1.44H2.58v-1.224q0-.516.348-.864.348-.36.864-.36h2.424v1.44h-1.8q-.324 0-.324.36v.648h2.34v1.44h-2.34V40zm5.272 0v-1.44h1.224v-3.072h-1.08v-1.44h2.52v.864h.216q.168-.492.576-.756.408-.276.96-.276.888 0 1.428.564.54.552.54 1.692v.264l-1.56.144v-.168q0-.492-.252-.78-.252-.3-.756-.3t-.792.348-.288.996v1.92h1.368V40zm10.575.168q-.888 0-1.572-.372a2.7 2.7 0 0 1-1.068-1.092q-.384-.708-.384-1.704v-.072q0-.912.408-1.596a2.94 2.94 0 0 1 1.08-1.068q.684-.384 1.512-.384.768 0 1.32.264t.9.684q.36.42.528.924.18.492.18.96v.804h-4.368q.024.528.444.876.42.336.996.336.564 0 .864-.204.312-.204.432-.468l1.296.72q-.132.3-.444.624-.3.324-.816.552-.516.216-1.308.216m-1.44-3.948h2.808q-.072-.42-.456-.696-.372-.276-.948-.276-.564 0-.936.3-.36.288-.468.672m8.788 3.948q-.888 0-1.572-.372a2.7 2.7 0 0 1-1.068-1.092q-.384-.708-.384-1.704v-.072q0-.912.408-1.596a2.94 2.94 0 0 1 1.08-1.068q.684-.384 1.512-.384.768 0 1.32.264t.9.684q.36.42.528.924.18.492.18.96v.804h-4.368q.024.528.444.876.42.336.996.336.564 0 .864-.204.312-.204.432-.468l1.296.72q-.132.3-.444.624-.3.324-.816.552-.516.216-1.308.216m-1.44-3.948h2.808q-.072-.42-.456-.696-.372-.276-.948-.276-.564 0-.936.3-.36.288-.468.672M30.291 40v-1.44h2.088v-5.52h-2.016V31.6h3.528v6.96h1.944V40zm9.555.168q-.708 0-1.308-.36t-.96-1.044-.36-1.644v-.192q0-.948.348-1.632t.924-1.044q.588-.372 1.284-.372.636 0 1.02.216.396.216.624.672h.216v-.72h1.512V38.2q0 .36.324.36h.228V40h-1.032a.96.96 0 0 1-.672-.24.85.85 0 0 1-.252-.624h-.216q-.228.552-.672.792-.432.24-1.008.24m.336-1.44q.66 0 1.056-.432.396-.444.396-1.2v-.144q0-.756-.396-1.188-.396-.444-1.056-.444t-1.056.444q-.396.432-.396 1.188v.144q0 .756.396 1.2.396.432 1.056.432M45.022 40v-5.952h1.512v.888h.216a1.58 1.58 0 0 1 .66-.78q.456-.276 1.068-.276.576 0 1.044.252.48.24.756.768.288.516.288 1.332V40h-1.512v-3.384q0-.636-.312-.996-.3-.372-.876-.372-.66 0-.996.456-.336.444-.336 1.2V40zm10.156.168a3.54 3.54 0 0 1-1.584-.348 2.8 2.8 0 0 1-1.128-1.032q-.408-.684-.408-1.644V37q0-.96.42-1.656.42-.708 1.128-1.08a3.24 3.24 0 0 1 1.572-.384q1.248 0 2.028.648t.972 1.704l-1.488.384a1.56 1.56 0 0 0-.456-.912q-.384-.384-1.08-.384-.648 0-1.116.456t-.468 1.26v.072q0 .804.468 1.212t1.116.408q.696 0 1.056-.348.372-.348.48-.936l1.488.372q-.192 1.056-.96 1.704t-2.04.648m7.335 0q-.888 0-1.572-.372a2.7 2.7 0 0 1-1.068-1.092q-.384-.708-.384-1.704v-.072q0-.912.408-1.596a2.94 2.94 0 0 1 1.08-1.068q.684-.384 1.512-.384.768 0 1.32.264t.9.684q.36.42.528.924.18.492.18.96v.804H61.05q.024.528.444.876.42.336.996.336.564 0 .864-.204.312-.204.432-.468l1.296.72q-.132.3-.444.624-.3.324-.816.552-.516.216-1.308.216m-1.44-3.948h2.808q-.072-.42-.456-.696-.372-.276-.948-.276-.564 0-.936.3-.36.288-.468.672"/></g><defs><clipPath id="a"><path fill="#fff" d="M0 0h74v42H0z"/></clipPath></defs></svg>
